svgs/valenbisi.svg

<svg xmlns="http://www.w3.org/2000/svg" viewBox="0 0 192 192"><path d="M46.819 144.204c-.263-.987-1.5-1.321-2.749-.741-6.588 3.057-10.657-19.559-6.25-34.734 2.758-9.496 5.342-12.255 8.572-9.151 3.102 2.981 4.482 9.627 5.222 25.153.623 13.048-.437 21.269-2.744 21.269-.865 0-1.788-.808-2.051-1.796Zm-2.112-25.392c-.698-1.949-1.18-2.053-2.02-.435-.84 1.618-.885 2.737-.188 4.687.697 1.949 1.18 2.053 2.02.435.84-1.617.885-2.737.188-4.687Zm49.679 24.342c-.56-1.566-1.19-6.996-1.4-12.067-.461-11.147-1.409-11.962-2.001-1.722-.502 8.69-1.763 12.922-3.847 12.922-2.252 0-3.131-5.846-3.131-20.814 0-18.821 1.008-21.884 7.201-21.884 6.23 0 8.773 4.671 9.383 17.233.516 10.608-1.078 24.957-3.043 27.397-1.867 2.318-1.963 2.286-3.162-1.065Zm-71.585-.892c-3.63-3.16-6.801-17.027-6.801-29.74 0-18.37 5.147-20.141 7.996-2.752l.907 5.533 1.722-6.994c1.864-7.566 4.688-10.5 6.587-6.843 3.528 6.794-1.999 36.735-7.611 41.229-.66.528-1.92.334-2.8-.433Zm34.503-1.575c-3.852-9.876-2.848-53.624 1.377-59.997 1.505-2.269 3.637 2.093 4.484 9.175 1.22 10.193 1.021 28.048-.442 39.554-1.914 15.062-3.032 17.387-5.419 11.268Zm13.102.416c-2.786-4.577-3.81-8.082-4.372-14.962-.575-7.034 1.015-16.915 3.634-22.576 3.599-7.779 10.95-3.831 12.295 6.604.757 5.873-2.01 11.697-5.557 11.697-1.54 0-2.8.931-2.8 2.067 0 1.283.987 1.72 2.6 1.151 3.358-1.184 5.401 1.377 5.401 6.77 0 9.674-7.283 15.687-11.201 9.249Zm5.966-28.391c.592-2.221-.913-4.422-1.979-2.894-.895 1.283-.307 4.623.813 4.623.388 0 .913-.778 1.166-1.729Zm30.844 29.857c-3.323-2.284-4.142-8.455-3.734-28.128.53-25.535 3.541-40.213 6.731-32.812.616 1.429 1.313 5.945 1.549 10.035.353 6.105.878 7.896 2.93 10.002 3.408 3.496 4.65 9.792 4.282 21.713-.228 7.412-.795 11.006-2.277 14.445-2.114 4.905-6.242 6.971-9.481 4.745Zm5.594-20.674c0-.787-.492-2.378-1.094-3.537-1.471-2.832-3.339 1.762-1.99 4.893.911 2.112 3.084 1.157 3.084-1.356Zm10.859 19.334c-1.779-4.129-2.298-10.417-1.903-23.074.38-12.195 2.27-19.095 4.981-18.183 2.558.859 3.764 8.405 3.454 21.626l-.276 11.798 3.075-.957c1.691-.526 3.597-1.961 4.234-3.189 1.004-1.933.963-2.889-.309-7.128-.807-2.693-1.883-7.736-2.39-11.207-4.028-27.555 7.921-62.105 22.395-64.754 16.323-2.987 24.701 36.158 14.842 69.351-3.833 12.906-8.887 18.831-18.205 21.342-14.173 3.82-16.224 3.916-20.355.953-2.485-1.783-4.103-2.168-4.272-1.018-.388 2.646-2.519 7.355-3.329 7.355-.377 0-1.251-1.312-1.942-2.915Zm40.096-21.683c4.759-12.204 4.527-38.748-.363-41.596-2.934-1.708-5.856 6.012-6.383 16.864-.386 7.941-.496 8.307-1.329 4.432-.499-2.324-1.717-5.161-2.706-6.305-2.8-3.24-3.193-4.948-.615-2.673 1.861 1.641 2.561 1.493 3.526-.744 3.057-7.093-3.606-19.274-9.358-17.109-5.816 2.19-8.638 16.7-4.924 25.318 1.563 3.626 1.564 3.713.054 3.713-.889 0-1.783 1.73-2.103 4.067-.429 3.139.018 5.258 1.959 9.282 4.453 9.232 12.524 6.647 14.484-4.64.687-3.957.707-3.94.757.624.066 6.099 2.158 12.944 3.957 12.944.778 0 2.148-1.88 3.044-4.177Zm3.098-48.641c2.654-9.396-1.583-19.436-5.615-13.306-2.339 3.556-2.632 9.531-.709 14.462 1.874 4.806 4.791 4.273 6.324-1.156Zm-42.252 22.966c-1.723-2.328-1.854-11.517-.21-14.683 1.627-3.134 4.986-.871 5.624 3.788.581 4.248-1.47 12.934-3.032 12.844-.54-.031-1.612-.908-2.382-1.949Z"/></svg>

<svg
    xmlns="http://www.w3.org/2000/svg"
    viewBox="0 0 192 192"
    id="vector">
    <path
        id="path"
        d="M 46.819 144.204 C 46.556 143.217 45.319 142.883 44.07 143.463 C 37.482 146.52 33.413 123.904 37.82 108.729 C 40.578 99.233 43.162 96.474 46.392 99.578 C 49.494 102.559 50.874 109.205 51.614 124.731 C 52.237 137.779 51.177 146 48.87 146 C 48.005 146 47.082 145.192 46.819 144.204 Z M 44.707 118.812 C 44.009 116.863 43.527 116.759 42.687 118.377 C 41.847 119.995 41.802 121.114 42.499 123.064 C 43.196 125.013 43.679 125.117 44.519 123.499 C 45.359 121.882 45.404 120.762 44.707 118.812 Z M 94.386 143.154 C 93.826 141.588 93.196 136.158 92.986 131.087 C 92.525 119.94 91.577 119.125 90.985 129.365 C 90.483 138.055 89.222 142.287 87.138 142.287 C 84.886 142.287 84.007 136.441 84.007 121.473 C 84.007 102.652 85.015 99.589 91.208 99.589 C 97.438 99.589 99.981 104.26 100.591 116.822 C 101.107 127.43 99.513 141.779 97.548 144.219 C 95.681 146.537 95.585 146.505 94.386 143.154 Z M 22.801 142.262 C 19.171 139.102 16 125.235 16 112.522 C 16 94.152 21.147 92.381 23.996 109.77 L 24.903 115.303 L 26.625 108.309 C 28.489 100.743 31.313 97.809 33.212 101.466 C 36.74 108.26 31.213 138.201 25.601 142.695 C 24.941 143.223 23.681 143.029 22.801 142.262 Z M 57.304 140.687 C 53.452 130.811 54.456 87.063 58.681 80.69 C 60.186 78.421 62.318 82.783 63.165 89.865 C 64.385 100.058 64.186 117.913 62.723 129.419 C 60.809 144.481 59.691 146.806 57.304 140.687 Z M 70.406 141.103 C 67.62 136.526 66.596 133.021 66.034 126.141 C 65.459 119.107 67.049 109.226 69.668 103.565 C 73.267 95.786 80.618 99.734 81.963 110.169 C 82.72 116.042 79.953 121.866 76.406 121.866 C 74.866 121.866 73.606 122.797 73.606 123.933 C 73.606 125.216 74.593 125.653 76.206 125.084 C 79.564 123.9 81.607 126.461 81.607 131.854 C 81.607 141.528 74.324 147.541 70.406 141.103 Z M 76.372 112.712 C 76.964 110.491 75.459 108.29 74.393 109.818 C 73.498 111.101 74.086 114.441 75.206 114.441 C 75.594 114.441 76.119 113.663 76.372 112.712 Z M 107.216 142.569 C 103.893 140.285 103.074 134.114 103.482 114.441 C 104.012 88.906 107.023 74.228 110.213 81.629 C 110.829 83.058 111.526 87.574 111.762 91.664 C 112.115 97.769 112.64 99.56 114.692 101.666 C 118.1 105.162 119.342 111.458 118.974 123.379 C 118.746 130.791 118.179 134.385 116.697 137.824 C 114.583 142.729 110.455 144.795 107.216 142.569 Z M 112.81 121.895 C 112.81 121.108 112.318 119.517 111.716 118.358 C 110.245 115.526 108.377 120.12 109.726 123.251 C 110.637 125.363 112.81 124.408 112.81 121.895 Z M 123.669 141.229 C 121.89 137.1 121.371 130.812 121.766 118.155 C 122.146 105.96 124.036 99.06 126.747 99.972 C 129.305 100.831 130.511 108.377 130.201 121.598 L 129.925 133.396 L 133 132.439 C 134.691 131.913 136.597 130.478 137.234 129.25 C 138.238 127.317 138.197 126.361 136.925 122.122 C 136.118 119.429 135.042 114.386 134.535 110.915 C 130.507 83.36 142.456 48.81 156.93 46.161 C 173.253 43.174 181.631 82.319 171.772 115.512 C 167.939 128.418 162.885 134.343 153.567 136.854 C 139.394 140.674 137.343 140.77 133.212 137.807 C 130.727 136.024 129.109 135.639 128.94 136.789 C 128.552 139.435 126.421 144.144 125.611 144.144 C 125.234 144.144 124.36 142.832 123.669 141.229 Z M 163.765 119.546 C 168.524 107.342 168.292 80.798 163.402 77.95 C 160.468 76.242 157.546 83.962 157.019 94.814 C 156.633 102.755 156.523 103.121 155.69 99.246 C 155.191 96.922 153.973 94.085 152.984 92.941 C 150.184 89.701 149.791 87.993 152.369 90.268 C 154.23 91.909 154.93 91.761 155.895 89.524 C 158.952 82.431 152.289 70.25 146.537 72.415 C 140.721 74.605 137.899 89.115 141.613 97.733 C 143.176 101.359 143.177 101.446 141.667 101.446 C 140.778 101.446 139.884 103.176 139.564 105.513 C 139.135 108.652 139.582 110.771 141.523 114.795 C 145.976 124.027 154.047 121.442 156.007 110.155 C 156.694 106.198 156.714 106.215 156.764 110.779 C 156.83 116.878 158.922 123.723 160.721 123.723 C 161.499 123.723 162.869 121.843 163.765 119.546 Z M 166.863 70.905 C 169.517 61.509 165.28 51.469 161.248 57.599 C 158.909 61.155 158.616 67.13 160.539 72.061 C 162.413 76.867 165.33 76.334 166.863 70.905 Z M 124.611 93.871 C 122.888 91.543 122.757 82.354 124.401 79.188 C 126.028 76.054 129.387 78.317 130.025 82.976 C 130.606 87.224 128.555 95.91 126.993 95.82 C 126.453 95.789 125.381 94.912 124.611 93.871 Z"
        fill="#000000"
        stroke-width="12"/>
</svg>
